src/lib/packages/icons/src/assets/filled/arrow-left-arrow-right-square.svg

<svg width="24" height="24" viewBox="0 0 24 24" fill="none" xmlns="http://www.w3.org/2000/svg">
<path d="M17.625 3H6.375C4.125 3 3 4.125 3 6.375V17.625C3 19.875 4.125 21 6.375 21H17.625C19.875 21 21 19.875 21 17.625V6.375C21 4.125 19.875 3 17.625 3ZM6.46997 10.532C6.40097 10.463 6.34708 10.382 6.30908 10.291C6.27108 10.2 6.25098 10.102 6.25098 10.002C6.25098 9.90195 6.27208 9.80389 6.30908 9.71289C6.34708 9.62189 6.40197 9.53995 6.46997 9.47095L8.13696 7.80396C8.42996 7.51095 8.905 7.51095 9.198 7.80396C9.491 8.09696 9.491 8.57199 9.198 8.86499L8.81104 9.25195H15C15.414 9.25195 15.75 9.58795 15.75 10.002C15.75 10.416 15.414 10.752 15 10.752H8.81104L9.19702 11.1379C9.49002 11.4299 9.49002 11.906 9.19702 12.199C9.05102 12.345 8.85899 12.4189 8.66699 12.4189C8.47499 12.4189 8.28296 12.346 8.13696 12.199L6.46997 10.532ZM17.6919 14.2871C17.6539 14.3781 17.599 14.4601 17.531 14.5291L15.864 16.196C15.718 16.342 15.525 16.416 15.334 16.416C15.142 16.416 14.95 16.343 14.804 16.196C14.511 15.903 14.511 15.428 14.804 15.135L15.1899 14.749H9C8.586 14.749 8.25 14.413 8.25 13.999C8.25 13.585 8.586 13.249 9 13.249H15.189L14.803 12.863C14.51 12.571 14.51 12.095 14.803 11.802C15.096 11.509 15.571 11.509 15.864 11.802L17.531 13.469C17.6 13.538 17.6539 13.6199 17.6919 13.7109C17.7299 13.8019 17.75 13.899 17.75 14C17.75 14.101 17.7289 14.1961 17.6919 14.2871Z" fill="currentColor"/>
</svg>

<svg xmlns="http://www.w3.org/2000/svg" width="24" height="24" fill="none"><path fill="currentColor" d="M17.625 3H6.375C4.125 3 3 4.125 3 6.375v11.25C3 19.875 4.125 21 6.375 21h11.25C19.875 21 21 19.875 21 17.625V6.375C21 4.125 19.875 3 17.625 3ZM6.47 10.532a.744.744 0 0 1-.219-.53.769.769 0 0 1 .219-.531l1.667-1.667a.75.75 0 1 1 1.061 1.061l-.387.387H15a.75.75 0 0 1 0 1.5H8.811l.386.386a.75.75 0 0 1-1.06 1.061L6.47 10.532Zm11.222 3.755a.764.764 0 0 1-.161.242l-1.667 1.667a.75.75 0 1 1-1.06-1.061l.386-.386H9a.75.75 0 0 1 0-1.5h6.189l-.386-.386a.75.75 0 1 1 1.061-1.061l1.667 1.667a.748.748 0 0 1 .16.818Z"/></svg>
